X: 21583
T: Kilkenny Station
R: hornpipe
M: 4/4
K: Dmixolydian
AB|cABG ABAG|FGFE DCA,B,|C2GF GcAG|(3FGF D2 DFAB|
cABG ABAG|FGFE DCA,B,|C2GF GcAG|1 (3FGF D2 D2AB:|2 (3FGF D2 D3B,||
CB,A,B, CDEG|(3FGF DE FGAF|GFEF GABd|^c2 A2 A2de|
fde=c dcAG|cAG=F EB,CE|G,B,CD E^FGA|1 (3FGF D2 D3B,:|2 (3FGF D2 D2||

